X: 142
T: The Braes of Marr
R: strathspey
M: C|
L: 1/8
Z: 2011 John Chambers <jc:trillian.mit.edu>
B: Abraham Mackintosh "A Collection of Strathspeys, Reels, Jigs &c.", Newcastle, after 1797, p.14
F: http://imslp.info/files/imglnks/usimg/a/a8/IMSLP80796-PMLP164326-Abraham_Mackintosh_coll.pdf
K: D
V: 1
   A | F<AA>B d>ef>e | d<BB>A B>dBA | F<AA>B d>ef>d | e<df>d Te2d :|
|: A | F<AA>D F>DA>D | G<BB>E G>EB>E | F<AA>D F>DA>F | G<AF>d E2D :|
|: A | F<AA>B d>ef>e | d<BB>A d<BB>A | F<AA>B d>ef>d | e<fa>f e2d :|
   g | f<aa>d f>da>d | g<bb>e g>eb>e | f<aa>d f>da>d | g>bf>a Te2dg |
       f<aa>d f>da>d | g<bb>e g<eb>e | f<ae>f d>eB>d | A<d F>d E2D |]
V: 2 clef=bass middle=d
   z | d2d2 d2d2 | d2d2 d2d2 | d2d2 d2d2 | d2d2 A2d :|
|: z | d2d2 d2d2 | e2e2 e2e2 | d2d2 d2d2 | c2d2 A2d :|
|: z | d2d2 d2d2 | d2d2 d2d2 | d2d2 d2d2 | a2fd a2d :|
   z | d2d2 d2d2 | e2e2 e2e2 | d2d2 d2f2 | g2d2 a2dz |
       d2d2 d2d2 | e2e2 e2e2 | d2a2 b2g2 | f2d2 A2d |]

%%sep 2 1 500

